X:21
T:Tam Lin (Reel)
T:Glasgow Reel, The
I:titlefont Times-Roman 24
I:partsfont Times-Roman 20
M:4/4
L:1/8
R: reel
O:Davey Arthur (21.2.2015/NS)
K:Dmin
"Dm"A,2DA, FA,DA,|"Bb"B,2DB, FB,DB,|"C"C2EC GCEC|FEDC A,DDC|
"Dm"A,2DA, FA,DA,|"Bb"B,2DB, FB,DB,|"C"C2EC GCEC|FEDC A,DD2:|
|:"Dm"dA~A2 FADA|dA~A2 FADA|"C"cG~G2 EG~G2|cG~G2 cdec|
"Dm"dA~A2 FADA|dA~A2 FEDA,|"Bb"~B,3A, B,CDE|"C"FDEC "Dm"A,DD2:|
%%vskip%%
%%vskip%%
K:Ddor
P:Julia Delaney's
|: c | "Dm"dcAG "Bb"{FG}F2 DF | "C"{EF}E2 CE "G" FED2 | dcAG "Bb"{FG}F2 DF | "C"Ad{e}dc "Dm"defe |
"Dm"dcAG "Bb"{FG}F2 DF | "C"{EF}E2 CE "G"FEFA | dcAG "Bb"{FG}F2 DF | "C"Ad{e}dc "Dm"d2 c :|
|: e | "Dm"fede fagf | "C"ecgc acge | "Bb"fede fagf | "Am"eA~A2 "Dm"d2de |
"Dm"fede "F"fagf | "C"ecgc acge | "Bb"fedf "Am"edcG | Ad{e}dc "Dm"d2 e :|

